UI/POI/SVG/police_solid_24px.svg

<svg width="24" height="24" viewBox="0 0 24 24" fill="none" xmlns="http://www.w3.org/2000/svg">
<path d="M12 2L2 9L6 12H8.54C8.18749 11.3923 8.00125 10.7025 8 10V7L9 6H15L16 7V10C15.9988 10.7025 15.8125 11.3923 15.46 12H18L22 9L12 2ZM18 14V16C18 17.5913 17.3679 19.1174 16.2426 20.2426C15.1174 21.3679 13.5913 22 12 22C10.4087 22 8.88258 21.3679 7.75736 20.2426C6.63214 19.1174 6 17.5913 6 16V14H18ZM12 12C11.4696 12 10.9609 11.7893 10.5858 11.4142C10.2107 11.0391 10 10.5304 10 10V8H14V10C14 10.5304 13.7893 11.0391 13.4142 11.4142C13.0391 11.7893 12.5304 12 12 12Z" fill="#0F1621"/>
</svg>

<svg xmlns="http://www.w3.org/2000/svg" width="24" height="24" viewBox="0 0 24 24"><rect width="24" height="24" style="fill:none"/><path d="M12,2,2,9l4,3H8.54A4,4,0,0,1,8,10V7L9,6h6l1,1v3a4,4,0,0,1-.54,2H18l4-3Zm6,12v2A6,6,0,0,1,6,16V14Zm-6-2h0a2,2,0,0,1-2-2V8h4v2A2,2,0,0,1,12,12Z"/></svg>
